X:1
T:Jenny's Gone to Linton
C:Trad, Sc.  
M:C|
L:1/8
Q:1/2=116
K:A 
 e3 d |: c2 e2 e2 f2 | a4 a3 e | f3 e f2 g2 | a4 a4 |
 c2 e2 e2 f2 | a4 a3 e | f2 a2 e2 c2 | B4 A4 :|
  |: c2 e2 e2 a2 | f2 d2 d2 f2 | e2 c2 c2 e2 | d2 B2 B4 |
  c2 e2 e2 a2 | f2 d2 d2 f2 | e2 c2 a2 c2 | B4 A4 :|
%%%%  Another old standby.  
%%%%  This tune is "The High Road to Linton" at half-speed.
%%%%  The way I play it, there's a G chord in bar 12 (fourth
%%%%  bar of the second turn).  But not everybody agrees with
%%%%  this (the tune doesn't require it).
%%%%  Cathie's version is quite a bit livelier than the notes 
%%%%  here would indicate.
%%%%  See Chorus.abc for notes on construction
